X:2
T:Jig Esgob Bangor
T:The Bishop of Bangor's Jig
M:6/8
R:Jig
K:Em
B | efg fge | ^def B2 e | dcB AGA | B3-B2 B | efg fge | ^def B2 e |
 dcB AGA | B3-B2 |: B/2c/2 | dBG cAF | BGE AFD | GAB A2 G|
 G3-G2 ef | ge^c af^d | bge af^d | efg Be^d | e3-e2 :|
